!!!COM: Anon.
!!!OTL: Acordai, minha ma~ezinha
!!!OTL: Romanceiro Folclorico do Brasil
!!!CNT: Brasil
!!!OCY: Brasil
!!!ODT: <1971///
!!!PSR: Irmaos Vitale
!!!PSP: Sao Paulo, Brasil
!!!PDT: 1951///
!!!PPE: Rossini Tavares de Lima
!!!PPG: page 58
!! Romance: Cego Ou Ceguinho
!! Place: Barretos, Sao Paulo, Brasil
**kern
*clefG2
*k[]
*M2/4
*MM96
8e
8f
=
8g
8g
8e
8f
=
4.g
8g
=
8a
8g
8f
8e
=
4.d
8r
=
8f
8f
8d
8e
=
4f
8f
8a
=
8g
8f
8e
8d
=
2e
==
*-
